@extra/phlat-icons/symbolic-24/applications-office.svg

<?xml version="1.0" encoding="UTF-8" standalone="no"?>
<svg
   xmlns:dc="http://purl.org/dc/elements/1.1/"
   xmlns:cc="http://creativecommons.org/ns#"
   xmlns:rdf="http://www.w3.org/1999/02/22-rdf-syntax-ns#"
   xmlns:svg="http://www.w3.org/2000/svg"
   xmlns="http://www.w3.org/2000/svg"
   xmlns:sodipodi="http://sodipodi.sourceforge.net/DTD/sodipodi-0.dtd"
   xmlns:inkscape="http://www.inkscape.org/namespaces/inkscape"
   id="svg30"
   version="1.1"
	 viewBox="-4 -4 24 24"


   sodipodi:docname="applications-office.svg"
   inkscape:version="0.92.1 r15371">
  <sodipodi:namedview
     pagecolor="#ffffff"
     bordercolor="#666666"
     borderopacity="1"
     objecttolerance="10"
     gridtolerance="10"
     guidetolerance="10"
     inkscape:pageopacity="0"
     inkscape:pageshadow="2"
     inkscape:window-width="2560"
     inkscape:window-height="1034"
     id="namedview10"
     showgrid="true"
     inkscape:zoom="38.923135"
     inkscape:cx="-0.47457627"
     inkscape:cy="8"
     inkscape:window-x="0"
     inkscape:window-y="22"
     inkscape:window-maximized="1"
     inkscape:current-layer="svg30">
    <inkscape:grid
       type="xygrid"
       id="grid4487" />
  </sodipodi:namedview>
  <metadata
     id="metadata34">
    <rdf:RDF>
      <cc:Work
         rdf:about="">
        <dc:format>image/svg+xml</dc:format>
        <dc:type
           rdf:resource="http://purl.org/dc/dcmitype/StillImage" />
        <dc:title></dc:title>
      </cc:Work>
    </rdf:RDF>
  </metadata>
  <defs
     id="defs12" />
  <path
     style="opacity:1;fill:#f1f2f2"
     d="M 6,2 C 5,2 5,2 5,3 V 6 H 6 V 3 h 4 v 3 h 1 V 3 C 11,2 11,2 10,2 Z"
     id="path14"
     inkscape:connector-curvature="0"
     sodipodi:nodetypes="ssccccccsss" />
  <path
     style="opacity:1;fill:#f1f2f2"
     d="M 2 5 C 1 5 1 5 1 6 L 1 14 C 1 15 1 15 2 15 L 14 15 C 15 15 15 15 15 14 L 15 6 C 15 5 15 5 14 5 L 2 5 z M 2.8007812 6 L 13.199219 6 C 13.642419 6 14 6.3575813 14 6.8007812 L 14 13.199219 C 14 13.642419 13.642419 14 13.199219 14 L 2.8007812 14 C 2.3575813 14 2 13.642419 2 13.199219 L 2 6.8007812 C 2 6.3575814 2.3575814 6 2.8007812 6 z "
     id="path18" />
  <g
     transform="translate(0,1)"
     style="opacity:1;fill:#f1f2f2"
     id="g22">
    <path
       style="fill:#f1f2f2"
       id="path20"
       d="m 12,3 h 2 V 4 H 12 Z M 2,3 H 4 V 4 H 2 Z"
       inkscape:connector-curvature="0"
       sodipodi:nodetypes="cccccccccc" />
  </g>
  <g
     id="g28"
     fill="none" />
  <path
     style="opacity:0.3;fill:#f1f2f2"
     d="M 2.8007812 6 C 2.3575813 6 2 6.3575813 2 6.8007812 L 2 13.199219 C 2 13.642419 2.3575813 14 2.8007812 14 L 13.199219 14 C 13.642419 14 14 13.642419 14 13.199219 L 14 6.8007812 C 14 6.3575813 13.642419 6 13.199219 6 L 2.8007812 6 z "
     id="path4491" />
</svg>

<svg xmlns="http://www.w3.org/2000/svg" viewBox="0 0 16 16">
    <path d="M6 2C5 2 5 2 5 3v3h1V3h4v3h1V3c0-1 0-1-1-1z" fill="#f1f2f2"/>
    <path d="M2 5C1 5 1 5 1 6v8c0 1 0 1 1 1h12c1 0 1 0 1-1V6c0-1 0-1-1-1H2zm.8 1h10.4a.8.8 0 0 1 .8.8v6.4a.8.8 0 0 1-.8.8H2.8a.8.8 0 0 1-.8-.8V6.8a.8.8 0 0 1 .8-.8zM12 4h2v1h-2zM2 4h2v1H2z" fill="#f1f2f2"/>
    <path d="M2.8 6a.8.8 0 0 0-.8.8v6.4a.8.8 0 0 0 .8.8h10.4a.8.8 0 0 0 .8-.8V6.8a.8.8 0 0 0-.8-.8H2.8z" opacity=".3" fill="#f1f2f2"/>
</svg>
